X: 90
M: 9/8
L: 1/8
K: G
V: 1
|:\
|:\
b3 G2b aga | gfg efg fed | bgb afa geg | fdf e^ce d3  |
V: 2 clef=bass middle=d
|:\
g3 G3 z2z | g3 e3 d3 | c2a B2g A2f | g3 f2e d3 | B3 G3 z2z |
g3 e3 d3 | B2b c'3 b2a | g2c d2D G3 :||: g3 b2g f2d | e3 ^c'3 d'3 | g3 f3 e3 |
d3 A3 D3 | z2z g3 f3- | f3 e3 d3 | c2a B2g A2f | G3 c3 d3 |

